X:9915
T:Lough Mountain
R:reel
D:Fisherstreet
Z:id:hn-reel-628
M:C|
K:Edor
~B3E FEFA|B2ec dBAF|~A3G FDFA|dfed BAFA|
~B3E FEFA|(3Bcd ce dBAF|ABde fedf|edBA BE~E2:|
|:~e3d BABd|(3efg fd edBc|~d3B ADFA|dfed BAFA|
~e3d BABd|egfd edBc|~d3c defe|dBAd BE~E2:|
